X: 1
T:Passepied de Plaintel
Z:Roger Ngaret (94-95)
R:
C:Trad.
S:
A:Bretagne
M:2/4
L:1/16
K:G
P:A
Q:1/4=120
"G"GAB2 G2A2 | B2c2 d4 | dcB2 "D"A2B2 | c2B2 A4 :|\
"G"d4 "D"A2B2 | c2d2 "G"B2A2 | GFG2 "D"A4 | "G"d4 "D"A2B2 |\
c2d2 e2d2 | cdc2 "G"B4 | "D"A4 "G"G4 |]
P:B
"G"G2d2 d2B2 | "D"c2e2 "G"d2B2 | "D"c2e2 "G"d2c2 | B2A2 G4 ::\
G2AB "D"c2B2 | A4 "G"d4 | G2AB "D"c2B2 |1 A2B2 A4 :|2 A2B2 "G"G4 |]
